!!!COM: Haydn, Franz Joseph
!!!ONM: Opus 09, No. 3
!!!OTL: Andantino 
!!!OMV: 2
!!!SCT: H /disk/dos2/musedata_2000/haydn/traut/quart/op09n3/stage1/02
!!!SCA: Thematisch-bibliographisches Werkevererzeichnis (A. van Hoboken)
!!!YOR: Trautwein Edition
!!!EED: Frances Bennion
!!!ENC: Frances Bennion
!!!CDT: 1732/3/31/-1809/5/31/
!!!OCY: Österreich
!!!YEC: Copyright (c) 1994, 2000 Center for Computer Assisted Research in the Humanities
!!!YEM: Rights to all derivative editions reserved.
!!!YEM: Refer to licensing agreement for further details.
!!!YEN: United States of America
**kern	**kern	**kern	**kern
*k[f#]	*k[f#]	*k[f#]	*k[f#]
*G:	*G:	*G:	*G:
*clefG	*clefG	*clefC3	*clefF4
*M3/4	*M3/4	*M3/4	*M3/4
*tb12	*tb12	*tb12	*tb12
=1	=1	=1	=1
2.dd	2.d	4r	4r
.	.	4B	4B
.	.	4G	4G
=2	=2	=2	=2
2.ee	2.e	4r	4r
.	.	4c	4c
.	.	4G	4G
=3	=3	=3	=3
2.ff	2.f	4r	4r
.	.	4d	4d
.	.	4G	4G
=4	=4	=4	=4
4ee	4e	4c	4c
4ff#	4f#	4A	4A
4gg	4g	4B	4B
=5	=5	=5	=5
4aa	4a	4F#	4F#
4bb	4b	4G	4G
4ccc	4cc	4A	4A
=6	=6	=6	=6
4ddd	4dd	4B	4B
4r	4r	4r	2r
12gg	4dd	4b	.
12aa	.	.	.
12gg	.	.	.
=7	=7	=7	=7
4ff#	4cc	4a	2.r
4dd	4r	4r	.
12gg	4dd	4b	.
12aa	.	.	.
12gg	.	.	.
=8	=8	=8	=8
4ff#	4cc	4a	2.r
4ccc	4r	4r	.
12gg	4dd	4b	.
12aa	.	.	.
12gg	.	.	.
=9	=9	=9	=9
4ff#	4cc	4a	2.r
4dd	4r	4r	.
12gg	4dd	4b	.
12aa	.	.	.
12gg	.	.	.
=10	=10	=10	=10
4ff#	4cc	4a	4r
4ccc	4aa	4d	4F#
4bb	4gg	4d	4G
=11	=11	=11	=11
4aa	4ee	4e	4C
4gg	4b	4d	4D
4ff#	4a	4d	4D
=12	=12	=12	=12
4gg	4g	4G	4GG
2r	2r	2r	4G
.	.	.	4GG
=13	=13	=13	=13
2bb	2b	4r	4r
.	.	4g	4G
4dd#	4d#	4f#	4F#
=14	=14	=14	=14
4ee	4e	4g	4G
4gg	4g	4e	4E
4ee	4e	4g	4G
=15	=15	=15	=15
4cc#	4c#	2a	2A
4a	4A	.	.
4cc#	4c#	4g	4G
=16	=16	=16	=16
4dd	4d	4f	4F
4ff	4f	4d	4D
4dd	4d	4f	4F
=17	=17	=17	=17
4b	4B	2g	2G
4g	4G	.	.
4b	4B	4f	4F
=18	=18	=18	=18
4cc	4c	4e	4E
4dd	4d	4d	4D
4ee	4e	4c	4C
=19	=19	=19	=19
2.dd	2.d	4B	4BB
.	.	4B	4B
.	.	4G	4G
=20	=20	=20	=20
2.ee	2.e	4r	4r
.	.	4c	4c
.	.	4G	4G
=21	=21	=21	=21
2.ff	2.f	4r	4r
.	.	4d	4d
.	.	4G	4G
=22	=22	=22	=22
4ee	4e	4c	4c
4ff#	4f#	4A	4A
4gg	4g	4B	4B
=23	=23	=23	=23
4aa	4a	4F#	4F#
4bb	4b	4G	4G
4ccc	4cc	4A	4A
=24	=24	=24	=24
4ddd	4dd	4B	4B
4r	4r	4r	2r
12gg	4dd	4b	.
12aa	.	.	.
12gg	.	.	.
=25	=25	=25	=25
4ff#	4cc	4a	2.r
4dd	4r	4r	.
12gg	4dd	4b	.
12aa	.	.	.
12gg	.	.	.
=26	=26	=26	=26
4ff#	4cc	4a	2.r
4ccc	4r	4r	.
12gg	4dd	4b	.
12aa	.	.	.
12gg	.	.	.
=27	=27	=27	=27
4ff#	4cc	4a	2.r
4dd	4r	4r	.
12gg	4dd	4b	.
12aa	.	.	.
12gg	.	.	.
=28	=28	=28	=28
4ff#	4cc	4a	4r
4ccc	4aa	4d	4F#
4bb	4gg	4d	4G
=29	=29	=29	=29
4aa	4ee	4e	4C
4gg	4b	4d	4D
4ff#	4a	4d	4D
=30	=30	=30	=30
4gg	4g	4G	4GG
2r	2r	2r	4G
.	.	.	4GG
=31	=31	=31	=31
2dd	4r	2.r	2.r
.	4b	.	.
4ee	[4g	.	.
=32	=32	=32	=32
4cc#	4g]	2.r	2.r
[2dd	4f#	.	.
.	4d	.	.
=33	=33	=33	=33
4dd]	[2.e	2.r	2.r
4g	.	.	.
4cc	.	.	.
=34	=34	=34	=34
4f#	4e]	2r	2r
[2b	4d	.	.
.	4B	4G	4G
=35	=35	=35	=35
4b]	2.e	2.c	[2.c
4e	.	.	.
4a	.	.	.
=36	=36	=36	=36
4f#	2.d	4A	4c]
2g	.	2B	4B
.	.	.	4BB
=37	=37	=37	=37
4e	2e	4c	4C
4cc	.	4A	4AA
8a	8c	4d	4D
8f#	8A	.	.
=38	=38	=38	=38
4g	4B	4G	4GG
2r	2r	2r	4G
.	.	.	4GG
=39	=39	=39	=39
2d	4r	4r	4r
.	4d	4B	4BB
4g	4B	4G	4GG
=40	=40	=40	=40
4e	2e	2c	2C
[2a	.	.	.
.	4c	4A	4AA
=41	=41	=41	=41
4a]	2f#	2d	2D
4f#	.	.	.
4b	4d	4B	4BB
=42	=42	=42	=42
4g	2g	2e	2E
[2cc	.	.	.
.	4e	4c	4C
=43	=43	=43	=43
4cc]	2a	2f#	2F#
4a	.	.	.
[4dd	4f#	4d	4D
=44	=44	=44	=44
4dd]	4b	4g	4G
4b	4r	4r	2r
4ee	4bb	[4g	.
=45	=45	=45	=45
4cc#	2.aa	4g]	2.r
[2dd	.	4f#	.
.	.	4d	.
=46	=46	=46	=46
4dd]	2.gg	2e	2.r
4g	.	.	.
4cc	.	4A	.
=47	=47	=47	=47
4f#	2.ff#	2d	2r
[2b	.	.	.
.	.	4G	4G
=48	=48	=48	=48
4b]	2.ee	2.c	[2.c
4e	.	.	.
4a	.	.	.
=49	=49	=49	=49
4f#	2.dd	4A	4c]
2g	.	4B	4B
.	.	4d	4BB
=50	=50	=50	=50
4e	4dd	2e	4C
4cc	4cc	.	4AA
8a	8a	8c	4D
8f#	8f#	8A	.
=51	=51	=51	=51
4g	4g	4B	4GG
2r	2r	2r	4G
.	.	.	4GG
==	==	==	==
*-	*-	*-	*-
!!!RWG1: This file contains only pitch and duration data.
!!!RWG2: Transposing instruments are not transposed.
!!!RWG3: Spines may have incompatible meters.
!!!RWG4: Durations of rests and tied notes may be interpreted.
!!!RWG: Key is interpreted using the Humdrum key tool.
!!!AFT: stage1
!!!END: 1997/04/15
!!format changes:
!!content changes:
!!public access: complete
!!!KEY: 3153156977
!!!EMD: Converted from MuseData to Humdrum Dec 16, 2000, by Andreas Kornstaedt using muse2kern.
